images/icons/github.svg

<svg fill="none" height="24" viewBox="0 0 24 24" width="24" xmlns="http://www.w3.org/2000/svg" xmlns:xlink="http://www.w3.org/1999/xlink"><clipPath id="a"><path d="m0 0h24v24h-24z"/></clipPath><g clip-path="url(#a)"><path d="m8.02742 19.0196c0 .0951-.11129.1712-.25161.1712-.15968.0142-.27097-.0618-.27097-.1712 0-.0952.11129-.1712.25161-.1712.14516-.0143.27097.0618.27097.1712zm-1.50484-.2141c-.03387.0952.0629.2046.20807.2331.1258.0475.27096 0 .3-.0951.02903-.0951-.06291-.2045-.20807-.2473-.12581-.0333-.26613.0142-.3.1093zm2.13871-.0808c-.14032.0333-.2371.1237-.22258.233.01452.0952.14032.157.28548.1237.14033-.0333.2371-.1237.22258-.2188-.01451-.0903-.14516-.1522-.28548-.1379zm3.18391-18.2247c-6.71133 0-11.8452 5.00799-11.8452 11.6045 0 5.2743 3.37742 9.7876 8.20161 11.3761.61936.1094.8371-.2663.8371-.5754 0-.2949-.01452-1.9214-.01452-2.9202 0 0-3.38709.7134-4.09838-1.4172 0 0-.55162-1.384-1.34516-1.7407 0 0-1.10807-.7467.07741-.7324 0 0 1.20484.0951 1.86775 1.227 1.05967 1.8358 2.83548 1.3079 3.52742.994.11129-.761.4258-1.2889.77419-1.6028-2.70484-.2948-5.43387-.6801-5.43387-5.2553 0-1.3078.36774-1.96415 1.14193-2.80119-.1258-.30914-.53709-1.58372.12581-3.22927 1.01129-.30914 3.33871 1.2841 3.33871 1.2841.96774-.26634 2.0081-.40426 3.0387-.40426 1.0307 0 2.071.13792 3.0387.40426 0 0 2.3274-1.59799 3.3387-1.2841.6629 1.6503.2516 2.92013.1258 3.22927.7742.8418 1.2484 1.49809 1.2484 2.80119 0 4.5895-2.85 4.9557-5.5548 5.2553.4451.3758.8226 1.0891.8226 2.2068 0 1.6027-.0146 3.586-.0146 3.9759 0 .3092.2226.6849.8371.5755 4.8388-1.579 8.1194-6.0923 8.1194-11.3666 0-6.59651-5.4435-11.6045-12.1548-11.6045zm-7.14197 16.4032c-.06291.0475-.04839.1569.03387.2473.07742.0761.18871.1094.25161.0475.0629-.0475.04839-.1569-.03387-.2473-.07742-.0761-.18871-.1093-.25161-.0475zm-.52258-.3853c-.03388.0619.01451.138.11129.1855.07741.0476.17419.0333.20806-.0333.03387-.0618-.01452-.1379-.11129-.1854-.09677-.0286-.17419-.0143-.20806.0332zm1.56774 1.6932c-.07742.0618-.04839.2045.0629.2948.11129.1094.25161.1237.31452.0476.0629-.0618.03387-.2045-.06291-.2949-.10645-.1094-.25161-.1236-.31451-.0475zm-.55162-.6992c-.07742.0476-.07742.1713 0 .2806.07742.1094.20807.157.27097.1094.07742-.0618.07742-.1855 0-.2948-.06774-.1094-.19355-.157-.27097-.0952z" fill="#fff"/></g></svg>

<svg width="24" height="24" viewBox="0 0 24 24" fill="none" xmlns="http://www.w3.org/2000/svg">
<g clip-path="url(#clip0_1432_8626)">
<path d="M8.02742 19.0196C8.02742 19.1147 7.91613 19.1908 7.77581 19.1908C7.61613 19.205 7.50484 19.129 7.50484 19.0196C7.50484 18.9244 7.61613 18.8484 7.75645 18.8484C7.90161 18.8341 8.02742 18.9102 8.02742 19.0196ZM6.52258 18.8055C6.48871 18.9007 6.58548 19.0101 6.73065 19.0386C6.85645 19.0861 7.00161 19.0386 7.03065 18.9435C7.05968 18.8484 6.96774 18.739 6.82258 18.6962C6.69677 18.6629 6.55645 18.7104 6.52258 18.8055ZM8.66129 18.7247C8.52097 18.758 8.42419 18.8484 8.43871 18.9577C8.45323 19.0529 8.57903 19.1147 8.72419 19.0814C8.86452 19.0481 8.96129 18.9577 8.94677 18.8626C8.93226 18.7723 8.80161 18.7104 8.66129 18.7247ZM11.8452 0.5C5.13387 0.5 0 5.50799 0 12.1045C0 17.3788 3.37742 21.8921 8.20161 23.4806C8.82097 23.59 9.03871 23.2143 9.03871 22.9052C9.03871 22.6103 9.02419 20.9838 9.02419 19.985C9.02419 19.985 5.6371 20.6984 4.92581 18.5678C4.92581 18.5678 4.37419 17.1838 3.58065 16.8271C3.58065 16.8271 2.47258 16.0804 3.65806 16.0947C3.65806 16.0947 4.8629 16.1898 5.52581 17.3217C6.58548 19.1575 8.36129 18.6296 9.05323 18.3157C9.16452 17.5547 9.47903 17.0268 9.82742 16.7129C7.12258 16.4181 4.39355 16.0328 4.39355 11.4576C4.39355 10.1498 4.76129 9.49345 5.53548 8.65641C5.40968 8.34727 4.99839 7.07269 5.66129 5.42714C6.67258 5.118 9 6.71124 9 6.71124C9.96774 6.4449 11.0081 6.30698 12.0387 6.30698C13.0694 6.30698 14.1097 6.4449 15.0774 6.71124C15.0774 6.71124 17.4048 5.11325 18.4161 5.42714C19.079 7.07744 18.6677 8.34727 18.5419 8.65641C19.3161 9.49821 19.7903 10.1545 19.7903 11.4576C19.7903 16.0471 16.9403 16.4133 14.2355 16.7129C14.6806 17.0887 15.0581 17.802 15.0581 18.9197C15.0581 20.5224 15.0435 22.5057 15.0435 22.8956C15.0435 23.2048 15.2661 23.5805 15.8806 23.4711C20.7194 21.8921 24 17.3788 24 12.1045C24 5.50799 18.5565 0.5 11.8452 0.5ZM4.70323 16.9032C4.64032 16.9507 4.65484 17.0601 4.7371 17.1505C4.81452 17.2266 4.92581 17.2599 4.98871 17.198C5.05161 17.1505 5.0371 17.0411 4.95484 16.9507C4.87742 16.8746 4.76613 16.8414 4.70323 16.9032ZM4.18065 16.5179C4.14677 16.5798 4.19516 16.6559 4.29194 16.7034C4.36935 16.751 4.46613 16.7367 4.5 16.6701C4.53387 16.6083 4.48548 16.5322 4.38871 16.4847C4.29194 16.4561 4.21452 16.4704 4.18065 16.5179ZM5.74839 18.2111C5.67097 18.2729 5.7 18.4156 5.81129 18.5059C5.92258 18.6153 6.0629 18.6296 6.12581 18.5535C6.18871 18.4917 6.15968 18.349 6.0629 18.2586C5.95645 18.1492 5.81129 18.135 5.74839 18.2111ZM5.19677 17.5119C5.11935 17.5595 5.11935 17.6832 5.19677 17.7925C5.27419 17.9019 5.40484 17.9495 5.46774 17.9019C5.54516 17.8401 5.54516 17.7164 5.46774 17.6071C5.4 17.4977 5.27419 17.4501 5.19677 17.5119Z" fill="white"/>
</g>
<defs>
<clipPath id="clip0_1432_8626">
<rect width="24" height="24" fill="white"/>
</clipPath>
</defs>
</svg>
